X:1
T:John Kelly
T:John Kelly
T:Carolan
C:Carolan
%%score 1 2
L:1/8
M:6/8
K:C
V:1 treble 
V:2 bass 
V:1
|: c2 c cdc | Bdd d2 f | edc egg | fed faa | g2 e fed | cBA GAB | cEG cEG | [EA]3 [EA]3 :: %8
 gag fed | c2 G c2 G | agf edc | Bdd d3 | ge/f/g afa | geg fdf | edc TBGB | c3 c3 :| %16
V:2
|: C3 C,3 | G,3 B,A,G, | C3 C,3 | D,3 D,2 F, | E,2 C, D,2 B,, | C,2 F, G,2 G,, | C,3 C,3 | %7
 A,,3 A,,3 :: B,,3 D,3 | E,3 C,3 | F,3 C,3 | G,3 B,A,G, | C3 F,3 | E,3 D,3 | C,3 G,2 G,, | %15
 C,3 C,3 :| %16

